build/img/logout-icon.svg

<svg width="16" height="18" viewBox="0 0 16 18" fill="none" xmlns="http://www.w3.org/2000/svg">
<path fill-rule="evenodd" clip-rule="evenodd" d="M7.49487 0C6.94259 0 6.49487 0.447715 6.49487 1C6.49487 1.55228 6.94259 2 7.49487 2H13.4949V16H7.49487C6.94259 16 6.49487 16.4477 6.49487 17C6.49487 17.5523 6.94259 18 7.49487 18H13.4949C14.5994 18 15.4949 17.1046 15.4949 16V2C15.4949 0.895431 14.5994 0 13.4949 0H7.49487ZM4.35075 5.14917C4.70654 4.79337 5.28341 4.79338 5.6392 5.14917C5.99477 5.50474 5.99503 6.08116 5.63978 6.43705L3.49326 8.58742H10.9325C11.4364 8.58742 11.845 8.99596 11.845 9.49992C11.845 10.0039 11.4364 10.4124 10.9325 10.4124H3.49326L5.63978 12.5628C5.99503 12.9187 5.99477 13.4951 5.6392 13.8507C5.2834 14.2065 4.70654 14.2065 4.35075 13.8507L0 9.49992L4.35075 5.14917Z" fill="#BA4F4F"/>
</svg>

<svg width="16" height="18" fill="none" xmlns="http://www.w3.org/2000/svg"><path fill-rule="evenodd" clip-rule="evenodd" d="M7.495 0a1 1 0 000 2h6v14h-6a1 1 0 100 2h6a2 2 0 002-2V2a2 2 0 00-2-2h-6zM4.35 5.15A.911.911 0 015.64 6.436l-2.147 2.15h7.44a.913.913 0 010 1.825h-7.44l2.147 2.15a.911.911 0 01-1.29 1.289L0 9.5l4.35-4.35z" fill="#BA4F4F"/></svg>
